epam-assets/icon-sources/18/action-external_link.svg

<svg width="18" height="18" viewBox="0 0 18 18" fill="none" xmlns="http://www.w3.org/2000/svg">
<g id="18/action-external_link">
<path id="icon" d="M3.75 15.75C3.3375 15.75 2.98425 15.6033 2.69025 15.3097C2.39675 15.0157 2.25 14.6625 2.25 14.25V3.75C2.25 3.3375 2.39675 2.98425 2.69025 2.69025C2.98425 2.39675 3.3375 2.25 3.75 2.25H9V3.75H3.75V14.25H14.25V9H15.75V14.25C15.75 14.6625 15.6033 15.0157 15.3097 15.3097C15.0157 15.6033 14.6625 15.75 14.25 15.75H3.75ZM7.275 11.775L6.225 10.725L13.2 3.75H10.5V2.25H15.75V7.5H14.25V4.8L7.275 11.775Z" fill="#6C6F80"/>
</g>
</svg>

<svg xmlns="http://www.w3.org/2000/svg" width="18" height="18" fill="none" viewBox="0 0 18 18">
  <path fill="#6C6F80" d="M3.75 15.75c-.413 0-.766-.147-1.06-.44a1.446 1.446 0 0 1-.44-1.06V3.75c0-.413.147-.766.44-1.06.294-.293.647-.44 1.06-.44H9v1.5H3.75v10.5h10.5V9h1.5v5.25c0 .412-.147.766-.44 1.06a1.45 1.45 0 0 1-1.06.44H3.75Zm3.525-3.975-1.05-1.05L13.2 3.75h-2.7v-1.5h5.25V7.5h-1.5V4.8l-6.975 6.975Z"/>
</svg>
